build/service/HelpSolid.svg

<svg xmlns="http://www.w3.org/2000/svg" fill="none" viewBox="0 0 24 24" focusable="false"><path d="M0 0H24V24H0z"/><path fill="#74767B" fill-rule="evenodd" d="M3 12C3 7.02944 7.02944 3 12 3C16.9706 3 21 7.02944 21 12C21 16.9706 16.9706 21 12 21C7.02944 21 3 16.9706 3 12ZM11.3245 13.6324C11.3245 13.9924 11.6145 14.2824 11.9745 14.2824C12.3345 14.2824 12.6245 13.9924 12.6245 13.6224C12.6245 13.3224 12.6645 13.1224 12.7745 12.8424C12.9145 12.5124 13.1945 12.2124 13.4945 11.9024L13.4991 11.8976C13.988 11.3888 14.5349 10.8195 14.6745 9.90239C14.8045 9.03239 14.4445 8.13239 13.7245 7.56239C12.9845 6.97239 12.0045 6.84239 11.1045 7.19239C9.92451 7.66239 9.25451 8.68239 9.3145 9.94239C9.3245 10.3024 9.6445 10.5724 9.9945 10.5624C10.3545 10.5424 10.6345 10.2424 10.6145 9.88239C10.5845 9.39239 10.7445 8.73239 11.5845 8.40239C12.0545 8.22239 12.5345 8.28239 12.9145 8.58239C13.2745 8.86239 13.4545 9.29239 13.3945 9.71239C13.3159 10.2137 12.9764 10.5701 12.5849 10.981L12.5645 11.0024C12.2045 11.3724 11.8045 11.7924 11.5745 12.3624C11.3945 12.7924 11.3245 13.1624 11.3245 13.6324ZM12.85 16.35C12.85 16.8194 12.4694 17.2 12 17.2C11.5306 17.2 11.15 16.8194 11.15 16.35C11.15 15.8806 11.5306 15.5 12 15.5C12.4694 15.5 12.85 15.8806 12.85 16.35Z"/></svg>

<svg xmlns="http://www.w3.org/2000/svg" fill="none" viewBox="0 0 24 24" focusable="false"><path fill="#74767B" fill-rule="evenodd" d="M3 12c0-4.98 4.02-9 9-9 4.97 0 9 4.02 9 9a9 9 0 0 1-9 9c-4.98 0-9-4.03-9-9m8.32 1.63a.65.65 0 1 0 1.3-.01c0-.3.04-.5.15-.78.14-.33.42-.63.72-.94v-.01c.49-.51 1.04-1.08 1.18-1.99.13-.87-.23-1.77-.95-2.34-.74-.59-1.72-.72-2.62-.37-1.18.47-1.85 1.49-1.79 2.75.01.36.33.63.68.62a.65.65 0 0 0 .62-.68c-.03-.49.13-1.15.97-1.48.47-.18.95-.12 1.33.18.36.28.54.71.48 1.13-.08.5-.42.86-.81 1.27l-.02.02c-.36.37-.76.79-.99 1.36-.18.43-.25.8-.25 1.27m1.53 2.72c0 .46-.39.85-.85.85-.47 0-.86-.39-.86-.85a.856.856 0 0 1 1.71 0"/></svg>
